X: 1
T: Kip's
T: Pet Of The Pipers
S: From the playing of Hugh Gillespie
M: 6/8
L: 1/8
R: jig
K: Amaj
|: E | A3 cBA | ece aec | A3 cEE | E^DE =dcB |
A3 cBA | ece aec | fga ecA | dcB A2 :|
|: a | aga fga | g/a/ba gfe | aga fga | bag a2 g |
agf edc | fed cBA | aga edc | dcB A2 :|
And in G:
